X:1
T:Title
%%score [ ( 1 2 ) ( 3 4 ) ]
L:1/8
Q:1/4=120
M:2/2
K:D
V:1 treble nm="Midi_74" snm=" "
V:2 treble 
V:3 bass nm="Midi_74"
V:4 bass 
V:1
 A4 (F3 G) | A4 D4 | (EFG"^Tochter Zion"A G2) F2 | E8 | (FGAB A2) A2 | %5
w: Toch- ter *|Zi- on|freu * * * * e|dich,|jauch * * * * ze|
w: Ho- si *|an- na,|Da * * * * vids|Sohn,|sei * * * * ge-|
w: Ho- si *|an- na,|Da * * * * vids|Sohn,|sei * * * * ge-|
"^Georg Friedrich Händel" d4 A4 | (G2 F2 E3) D | D8 | (FEFG F2) F2 | E4 D4 | (G2 F2 E2) D2 | C8 | %12
w: laut, Je-|ru * * sa-|lem!|Sieh, * * * * dein|Kö- nig|kommt * * zu|dir,|
w: seg- net|dei * * nem|Volk!|Grün * * * * de|nun dein|e * * wig|Reich,|
w: grü- ßet,|Kö * * nig|mild!|E * * * * wig|steht dein|Frie * * dens-|thron,|
 (DCDE D2) D2 | B4 ^G4 | (A2 BA ^G3) A | A8 | A4 (F3 G) | A4 D4 | (EFGA G2) F2 | E8 | %20
w: ja * * * * er|kommt, der|Frie * * * de-|fürst.|Toch- ter *|Zi- on|freu * * * * e|dich,|
w: Ho * * * * si-|an- na|in * * * der|Höh!|Ho- si *|an- na,|Da * * * * vids|Sohn,|
w: du * * * * des|ew- gen|Va * * * ters|Kind.|Ho- si *|an- na,|Da * * * * vids|Sohn,|
 (FGAB A2) A2 | d4 A4 | (G2 F2 E3) D | D8 |] %24
w: jauch * * * * ze|laut, Je-|ru * * sa-|lem!|
w: sei * * * * ge-|seg- net|dei * * nem|Volk!|
w: sei * * * * ge-|grü- ßet,|Kö * * nig|mild!|
V:2
 D4 D3 C | D4 A,4 | CDEF E2 D2 | C8 | D6 D2 | D4 D4 | (C2 D4) C2 | D8 | DCDE D2 D2 | C4 B,4 | %10
 E2 D2 C2 B,2 | ^A,8 | B,^A,B,C B,2 B,2 | D6 D2 | C2 DC B,2 E2 | E8 | D4 D3 C | D4 A,4 | %18
 CDEF E2 D2 | C8 | D6 D2 | D4 D4 | (C2 D4) C2 | D8 |] %24
V:3
 F,4 A,3 G, | F,4 A,4 | G,2 E,2 A,2 A,2 | A,8 | A,6 A,2 | A,4 F,4 | (G,2 A,4) G,2 | F,8 | A,6 A,2 | %9
 G,4 F,4 | ^A,2 B,2 G,2 F,2 | F,8 | F,6 F,2 | E,4 B,4 | A,2 F,2 B,2 B,2 | C8 | F,4 A,3 G, | %17
 F,4 A,4 | G,2 E,2 A,2 A,2 | A,8 | A,6 A,2 | A,4 F,4 | (G,2 A,4) G,2 | F,8 |] %24
V:4
 D,4 (F,3 E,) | D,4 F,4 | (E,3 D, C,2) D,2 | A,,8 | (D,E,F,G, F,2) F,2 | F,4 D,4 | %6
 (E,2 F,G, A,2) A,,2 | D,8 | D,6 D,2 | A,,4 B,,4 | (C,2 D,2 E,2) B,,2 | F,8 | B,,6 A,,2 | %13
 ^G,,4 E,4 | (F,2 D,2 E,2) E,2 | A,,8 | D,4 (F,3 E,) | D,4 F,4 | (E,3 D, C,2) D,2 | A,,8 | %20
 (D,E,F,G, F,2) F,2 | F,4 D,4 | (E,2 F,G, A,2) A,,2 | D,8 |] %24

